src/lib/packages/icons/src/assets/line/activity-heart-square.svg

<svg width="24" height="24" viewBox="0 0 24 24" fill="none" xmlns="http://www.w3.org/2000/svg">
<path d="M12 21.75H5.38C2.717 21.75 1.25 20.2831 1.25 17.6201V6.37012C1.25 3.71312 2.717 2.25 5.38 2.25H16.62C19.283 2.25 20.75 3.71312 20.75 6.37012V12C20.75 12.414 20.414 12.75 20 12.75C19.586 12.75 19.25 12.414 19.25 12V6.37012C19.25 4.53412 18.463 3.75 16.62 3.75H5.38C3.537 3.75 2.75 4.53412 2.75 6.37012V17.6201C2.75 19.4631 3.537 20.25 5.38 20.25H12C12.414 20.25 12.75 20.586 12.75 21C12.75 21.414 12.414 21.75 12 21.75ZM6.53 14.53L9.32101 11.739C9.41901 11.641 9.57699 11.641 9.67499 11.739L11.264 13.324C11.946 14.005 13.056 14.005 13.738 13.323L16.531 10.53C16.824 10.237 16.824 9.76199 16.531 9.46899C16.238 9.17599 15.763 9.17599 15.47 9.46899L12.677 12.262C12.58 12.359 12.422 12.36 12.323 12.262L10.734 10.677C10.052 9.996 8.94201 9.99598 8.26001 10.678L5.46899 13.469C5.17599 13.762 5.17599 14.237 5.46899 14.53C5.61499 14.676 5.80699 14.75 5.99899 14.75C6.19099 14.75 6.384 14.677 6.53 14.53ZM18.806 22.6851C18.942 22.6241 22.144 21.164 22.67 18.5C22.883 17.417 22.672 16.388 22.089 15.676C21.597 15.074 20.892 14.754 20.05 14.75C19.375 14.739 18.871 15.0039 18.5 15.3379C18.128 15.0039 17.625 14.737 16.949 14.75C16.108 14.754 15.403 15.074 14.91 15.677C14.327 16.389 14.116 17.418 14.329 18.5C14.854 21.164 18.057 22.6241 18.193 22.6851C18.29 22.7281 18.395 22.75 18.499 22.75C18.603 22.75 18.709 22.7281 18.806 22.6851ZM17.79 16.8831C17.892 17.1841 18.175 17.383 18.493 17.387C18.845 17.387 19.099 17.1891 19.208 16.8911C19.232 16.8251 19.426 16.26 20.044 16.249C20.434 16.251 20.724 16.374 20.929 16.625C21.222 16.984 21.323 17.576 21.199 18.208C20.902 19.711 19.206 20.775 18.501 21.158C17.795 20.775 16.099 19.712 15.803 18.208C15.678 17.577 15.779 16.985 16.073 16.625C16.279 16.374 16.568 16.25 16.957 16.249C16.958 16.249 16.96 16.249 16.961 16.249C17.54 16.25 17.769 16.8261 17.79 16.8831ZM21.934 18.354H21.944H21.934Z" fill="currentColor"/>
</svg>

<svg xmlns="http://www.w3.org/2000/svg" width="24" height="24" fill="none"><path fill="currentColor" d="M12 21.75H5.38c-2.663 0-4.13-1.467-4.13-4.13V6.37c0-2.657 1.467-4.12 4.13-4.12h11.24c2.663 0 4.13 1.463 4.13 4.12V12a.75.75 0 0 1-1.5 0V6.37c0-1.836-.787-2.62-2.63-2.62H5.38c-1.843 0-2.63.784-2.63 2.62v11.25c0 1.843.787 2.63 2.63 2.63H12a.75.75 0 0 1 0 1.5Zm-5.47-7.22 2.791-2.791a.25.25 0 0 1 .354 0l1.589 1.585a1.752 1.752 0 0 0 2.474-.001l2.793-2.793a.75.75 0 1 0-1.061-1.061l-2.793 2.793a.25.25 0 0 1-.354 0l-1.589-1.585a1.752 1.752 0 0 0-2.474.001l-2.791 2.791A.75.75 0 1 0 6.53 14.53Zm12.276 8.155c.136-.06 3.338-1.521 3.864-4.185.213-1.083.002-2.112-.581-2.824-.492-.602-1.197-.922-2.039-.926a2.199 2.199 0 0 0-1.55.588 2.192 2.192 0 0 0-1.551-.588c-.841.004-1.546.324-2.039.927-.583.712-.794 1.741-.581 2.823.525 2.664 3.728 4.124 3.864 4.185a.758.758 0 0 0 .613 0Zm-1.016-5.802c.102.301.385.5.703.504a.73.73 0 0 0 .715-.496c.024-.066.218-.631.836-.642.39.002.68.125.885.376.293.359.394.951.27 1.583-.297 1.503-1.993 2.567-2.698 2.95-.706-.383-2.402-1.446-2.698-2.95-.125-.631-.024-1.223.27-1.583.206-.251.495-.375.884-.376h.004c.579.001.808.577.829.634Zm4.144 1.471h.01-.01Z"/></svg>
